dist/svg/cloud-puzzle.svg

<svg width="16" height="16" viewBox="0 0 16 16" fill="rgb(34, 34, 34)" xmlns="http://www.w3.org/2000/svg"><title>cloud-puzzle</title><path d="M8.82701 11.018H2.66601C1.75701 11.018 1.01101 10.279 1.00201 9.37L1.00101 9.311C1.03801 8.601 1.52801 7.987 2.18501 7.81L2.87201 7.665L2.96901 6.97C3.13401 5.793 4.14901 4.905 5.35101 4.905C5.54701 4.905 5.71201 4.924 5.88601 4.968L6.61001 5.149L6.99001 4.507C7.54101 3.574 8.50901 3.017 9.58801 3.017H9.62301C10.978 3.017 12.154 3.933 12.482 5.246L12.608 5.815L13.165 5.986C14.259 6.321 14.996 7.306 14.999 8.424C14.998 8.518 14.979 8.607 14.968 8.698C14.983 8.797 14.999 8.897 14.999 9.001C15.324 9.001 15.626 9.086 15.898 9.224C15.958 8.97 15.996 8.707 15.999 8.435C15.995 6.835 14.937 5.483 13.458 5.03L13.452 5.003C13.022 3.288 11.47 2.018 9.62201 2.018H9.57701C8.11301 2.018 6.83301 2.806 6.12801 3.999C5.87201 3.935 5.62601 3.906 5.35001 3.906H5.32901C3.62201 3.906 2.21001 5.171 1.97701 6.832L1.95801 6.836C0.834009 7.138 0.00500928 8.161 -0.00299072 9.379L9.27737e-06 9.38C0.0140093 10.839 1.20101 12.018 2.66401 12.018H7.26601C7.58301 11.462 8.15501 11.077 8.82501 11.018H8.82701ZM15 10H14V9C14 8.448 13.552 8 13 8C12.448 8 12 8.448 12 9V10H11C10.448 10 10 10.448 10 11V12H9.00001C8.44801 12 8.00001 12.448 8.00001 13C8.00001 13.552 8.44801 14 9.00001 14H10V15C10 15.552 10.448 16 11 16H12V15C12 14.448 12.448 14 13 14C13.552 14 14 14.448 14 15V16H15C15.552 16 16 15.552 16 15V11C16 10.448 15.552 10 15 10Z" fill="rgb(34, 34, 34)" fill-opacity="1.00"/></svg>

<!-- Generated by Trend Micro Style Portal -->
<svg version="1.1" xmlns="http://www.w3.org/2000/svg" width="16" height="16" viewBox="0 0 16 16">
  <title>cloud-puzzle</title>
  <path fill="rgb(34,34,34)" d="M8.827 11.018h-6.161c-0.909 0-1.655-0.739-1.664-1.648l-0.001-0.059c0.037-0.71 0.527-1.324 1.184-1.501l0.687-0.145 0.097-0.695c0.165-1.177 1.18-2.065 2.382-2.065 0.196 0 0.361 0.019 0.535 0.063l0.724 0.181 0.38-0.642c0.551-0.933 1.519-1.49 2.598-1.49h0.035c1.355 0 2.531 0.916 2.859 2.229l0.126 0.569 0.557 0.171c1.094 0.335 1.831 1.32 1.834 2.438-0.001 0.094-0.020 0.183-0.031 0.274 0.015 0.099 0.031 0.199 0.031 0.303 0.325 0 0.627 0.085 0.899 0.223 0.060-0.254 0.098-0.517 0.101-0.789-0.004-1.6-1.062-2.952-2.541-3.405l-0.006-0.027c-0.43-1.715-1.982-2.985-3.83-2.985h-0.045c-1.464 0-2.744 0.788-3.449 1.981-0.256-0.064-0.502-0.093-0.778-0.093h-0.021c-1.707 0-3.119 1.265-3.352 2.926l-0.019 0.004c-1.124 0.302-1.953 1.325-1.961 2.543l0.003 0.001v0.001c0.014 1.459 1.201 2.637 2.664 2.637h4.602c0.317-0.556 0.889-0.941 1.559-1zM15 10h-1v-1c0-0.552-0.448-1-1-1s-1 0.448-1 1v1h-1c-0.552 0-1 0.448-1 1v1h-1c-0.552 0-1 0.448-1 1s0.448 1 1 1h1v1c0 0.552 0.448 1 1 1h1v-1c0-0.552 0.448-1 1-1s1 0.448 1 1v1h1c0.552 0 1-0.448 1-1v-4c0-0.552-0.448-1-1-1z"></path>
</svg>
